X:231
T:Reel 231
M:4/4
K:Dmaj
L:1/8
A|d2AG FADF|EFGA BAGE|d2AG FGAF|EA,A,G, A,DDE|DGAG FAAF|GFEF GABc|dcAA BGAF|GBAG FDD|G|FEDF AGAF|GBAG E2EG|FEDF AGAF|GBAG FDDE|FDDE FDDF|GBAF GEEG|FEDF AGAF|GBAG FDD|
